X:1
T:1 / 1 greitter: quodlibet (elselein ea)
%%score 1 2 3 4
L:1/8
Q:1/4=150
M:3/2
K:F
V:1 treble nm="Midi_75"
V:2 treble-8 nm="Midi_69"
V:3 treble-8 nm="Midi_75"
V:4 bass nm="Midi_71"
V:1
 z12 | z12 | G6 A2 B4 |"^Quodlibet""^(on \"Ach Elselein\" e.a)" A8 G4 | A6 G2 A4 | d8 d4 | %6
w: ||El- se- lin,|lieb- stes|El- se- lin|mein, wie|
"^Matthias Greitter""^(ca 1495-1550)" c6 B2 A4 |[M:3/2] B4 G8 | F8 d4 | c6 B2 A4 | B4 G8 | F12- | %12
w: gern * waer|ich bei|dir, wie|gern * waer|ich bei|dir,|
 F12 | z4 z4 d4 | c6 B2 A4 | B4 G8 | F12 | z4 z4 F4 | G6 A2 B4 | c6 B2 A4 | G6 A2 B4 | A12 | %22
w: |wie|gern * waer|ich bei|dir,|so|seind * zwei|tie- * fe|Was- * *|ser,|
 z4 z4 F4 | G6 A2 B4 | c6 B2 A4 | G6 A2 B4 | A8 G4 | F4 D8 | G6 F2 F2 E2 | G12- | G12 |] %31
w: so|seind * zwei|tie- * fe|Was- * *|ser ja|zwi- schen|dir * und *|mir.||
V:2
 z12 | z12 | z4 z4 d4 | d8 d4 | d8 d4 | f12- | f12 |[M:3/2][K:treble-8] B12 | d8 d4 | f4 e8 | d12 | %11
w: ||Es|ta- get|vor dem|Wal||de,|stand auf,|Kaet- ter-|lin!|
 z4 z4 d4 | d8 d4 | f12 | f12 | B8 c4 | d12- | d12- | d12 | z12 | z12 | c8 c4 | c6 B2 A4 | B4 G8 | %24
w: Die|Ha- sen|lau-|fen|bal- *|de,|||||stand auf,|Kaet- ter- lin,|hol- der|
 F12 | z12 | d8 e4 | f8 f4 | e4 d8 | d6 c2 B2 G2 | d12 |] %31
w: Buhl!||Du bist|mein, so|bin ich|dein. * * *||
V:3
 z4 z4 G4 | G6 G2 G4 | d6 c2 d4 | A4 B8 | A12 | z4 z4 B4 | c8 c4 |[M:3/2][K:treble-8] d6 c2 B4 | %8
w: Wann|an- der Leut|lie- * gen|und schla-|fen,|so|schreit mein|Herz * fast|
 A4 B8 | A12 | z12 | z4 z4 A4 | B8 A4 | c8 B4 | c2 B2 A2 G2 A4 | G8 G4 | A8 A4 | A6 G2 A4 | B8 B4 | %19
w: gma- *|che,||von|ei- nem|schoe- nen|Jung- * * * *|fraeu- e|lin, von|ei- * nem|Maid- lin|
 A6 B2 c2 A2 | B4 G8 | F12 | z12 | z4 z4 G4 | A6 G2 A2 B2 | c8 B4 | d4 f4 e4 | d6 c2 B4 | c4 A8 | %29
w: huebsch * * *|* und|fein~;||gern,|wenn * * *|Gott, gern,|wenn wollt Gott,|sollt * ich|bei ihr|
 G12- | G12 |] %31
w: sein.||
V:4
 z12 | z12 | G,8 D,4- | D,4 G,8 | D,12 | D,8 D,4 | F,6 G,2 A,4 |[M:3/2] G,12 | D,4 B,,8 | F,4 A,8 | %10
w: ||Grei- ner,|* ~Zan-|ker,|wie ge-|faellt * dir|das?|Ich will|dir's Weib|
 D,4 G,8 | D,6 C,2 D,4 | B,,8 F,4 | F,8 z4 | F,8 F,4 | G,2 F,2 E,2 D,2 E,4 | D,6 E,2 F,4 | D,12 | %18
w: ins Maul|kues- * *||sen,|ich will|dich * * * *|las- sen am|Tisch|
 G,6 F,2 G,4 | F,6 G,2 A,2 F,2 | G,8 G,4 | A,6 G,2 F,2 E,D, | C,8 D,4 | G,4 C,4 z4 | F,6 E,2 F,4 | %25
w: sit- zen, am|Tisch * * *|sit- zen,|am * * * *|Tisch *|sit- zen.|Wie * ge-|
 C,2 D,2 E,2 F,2 G,4 | D,8 z4 | D,6 E,2 D,4 | C,4 D,8 | G,,12- | G,,12 |] %31
w: faellt * * * dir|das,|wie * ge-|faellt dir|das?||

